X:28
T:Nightingale,The. RH.028
R:Air
S:Rev.R.Harrison’s MS,c1815,Cumbria
O:England
A:Temple Sowerby,Cumbria
Z:vmp.Simon Wilson. Review PJH, 2008.
M:C|
L:1/8
Q:1/2=110
K:D
d3f e3c|d2f2 a4|d3f edec|d2f2 a4|!
fdfa gega|fdfa gega|fad’c’ bagf|edef gfge|!
d3f edec|d2f2 a4|d3f edec|d2f2 a4|!
fdfa gega|fdfa gega|f2f2edef|d2d2defg|!
|:a6 e2|a6 e2|a2c’2 e’2c’2|agab aabc’|!
d’6 a2|f6 a2|fdfa fdfa|d’2d’2 d’2d2:|!
f2g2 a2b2|a2^g2 a2f2|e2f2 g2a2|g2f2 g2e2|!
fdfa gega|fdfa gega|fad’c’ bagf|edef gfge|!
f2g2 a2b2|a2^g2 a2f2|e2f2 g2a2|g2f2 g2e2|!
fdfa gega|fdfa gega|f2f2 edef|d2d2 d4|]

